src/shared/assets/svgs/friend_setting.svg

<svg width="54" height="54" viewBox="0 0 54 54" fill="none" xmlns="http://www.w3.org/2000/svg">
<path d="M22.5 26C23.6935 26 24.8381 25.5259 25.682 24.682C26.5259 23.8381 27 22.6935 27 21.5C27 20.3065 26.5259 19.1619 25.682 18.318C24.8381 17.4741 23.6935 17 22.5 17C21.3065 17 20.1619 17.4741 19.318 18.318C18.4741 19.1619 18 20.3065 18 21.5C18 22.6935 18.4741 23.8381 19.318 24.682C20.1619 25.5259 21.3065 26 22.5 26ZM36.5 22.5C36.5 22.9596 36.4095 23.4148 36.2336 23.8394C36.0577 24.264 35.7999 24.6499 35.4749 24.9749C35.1499 25.2999 34.764 25.5577 34.3394 25.7336C33.9148 25.9095 33.4596 26 33 26C32.5404 26 32.0852 25.9095 31.6606 25.7336C31.236 25.5577 30.8501 25.2999 30.5251 24.9749C30.2001 24.6499 29.9423 24.264 29.7664 23.8394C29.5905 23.4148 29.5 22.9596 29.5 22.5C29.5 21.5717 29.8687 20.6815 30.5251 20.0251C31.1815 19.3687 32.0717 19 33 19C33.9283 19 34.8185 19.3687 35.4749 20.0251C36.1313 20.6815 36.5 21.5717 36.5 22.5ZM15 30.25C15 29.6533 15.2371 29.081 15.659 28.659C16.081 28.2371 16.6533 28 17.25 28H27.75C27.9487 28.0007 28.1397 28.0253 28.323 28.074C27.588 28.7736 27.003 29.6154 26.6037 30.5482C26.2043 31.481 25.9989 32.4853 26 33.5C26 34.165 26.086 34.809 26.249 35.422C25.274 35.777 24.046 36 22.5 36C15 36 15 30.75 15 30.75V30.25ZM29.796 29.698C29.8708 29.9566 29.8926 30.2276 29.8601 30.4949C29.8276 30.7621 29.7415 31.02 29.6069 31.2532C29.4724 31.4864 29.2922 31.6899 29.077 31.8518C28.8619 32.0136 28.6163 32.1304 28.355 32.195L27.331 32.448C27.2194 33.1612 27.2221 33.8876 27.339 34.6L28.315 34.835C28.5786 34.8985 28.8265 35.0149 29.0437 35.1772C29.2609 35.3395 29.4428 35.5442 29.5784 35.7789C29.7141 36.0137 29.8005 36.2736 29.8326 36.5428C29.8647 36.812 29.8417 37.0849 29.765 37.345L29.441 38.443C29.959 38.903 30.551 39.278 31.194 39.543L32.037 38.657C32.2238 38.4605 32.4487 38.304 32.6978 38.1971C32.947 38.0902 33.2153 38.035 33.4865 38.035C33.7577 38.035 34.026 38.0902 34.2752 38.1971C34.5243 38.304 34.7492 38.4605 34.936 38.657L35.786 39.552C36.4264 39.289 37.0183 38.9205 37.537 38.462L37.202 37.302C37.1275 37.0435 37.106 36.7727 37.1386 36.5057C37.1712 36.2387 37.2574 35.981 37.3919 35.7481C37.5265 35.5151 37.7066 35.3117 37.9216 35.15C38.1365 34.9883 38.3819 34.8717 38.643 34.807L39.669 34.553C39.7806 33.8398 39.7779 33.1134 39.661 32.401L38.684 32.166C38.4204 32.1025 38.1725 31.9861 37.9553 31.8238C37.7381 31.6616 37.5562 31.4568 37.4206 31.2221C37.2849 30.9873 37.1985 30.7274 37.1664 30.4582C37.1343 30.189 37.1573 29.9161 37.234 29.656L37.558 28.556C37.0394 28.0937 36.4468 27.7219 35.805 27.456L34.962 28.344C34.7752 28.5407 34.5503 28.6973 34.301 28.8043C34.0517 28.9113 33.7833 28.9665 33.512 28.9665C33.2407 28.9665 32.9723 28.9113 32.723 28.8043C32.4737 28.6973 32.2488 28.5407 32.062 28.344L31.213 27.449C30.5726 27.712 29.9807 28.0805 29.462 28.539L29.796 29.698ZM33.5 35C33.1022 35 32.7206 34.842 32.4393 34.5607C32.158 34.2794 32 33.8978 32 33.5C32 33.1022 32.158 32.7206 32.4393 32.4393C32.7206 32.158 33.1022 32 33.5 32C33.8978 32 34.2794 32.158 34.5607 32.4393C34.842 32.7206 35 33.1022 35 33.5C35 33.8978 34.842 34.2794 34.5607 34.5607C34.2794 34.842 33.8978 35 33.5 35Z" fill="white"/>
</svg>

<svg xmlns="http://www.w3.org/2000/svg" width="54" height="54" fill="none"><path fill="#fff" d="M22.5 26a4.5 4.5 0 1 0 0-9 4.5 4.5 0 0 0 0 9m14-3.5a3.5 3.5 0 1 1-7 0 3.5 3.5 0 0 1 7 0M15 30.25A2.25 2.25 0 0 1 17.25 28h10.5q.299 0 .573.074A7.48 7.48 0 0 0 26 33.5c0 .665.086 1.309.249 1.922-.975.355-2.203.578-3.749.578-7.5 0-7.5-5.25-7.5-5.25zm14.796-.552a2 2 0 0 1-1.441 2.497l-1.024.253a6.8 6.8 0 0 0 .008 2.152l.976.235a2 2 0 0 1 1.45 2.51l-.324 1.098c.518.46 1.11.835 1.753 1.1l.843-.886a2 2 0 0 1 2.899 0l.85.895a6.2 6.2 0 0 0 1.751-1.09l-.335-1.16a2 2 0 0 1 1.441-2.495l1.026-.254a6.8 6.8 0 0 0-.008-2.152l-.977-.235a2 2 0 0 1-1.45-2.51l.324-1.1a6.2 6.2 0 0 0-1.753-1.1l-.843.888a2 2 0 0 1-2.9 0l-.849-.895a6.2 6.2 0 0 0-1.751 1.09zM33.5 35a1.5 1.5 0 1 1 0-3 1.5 1.5 0 0 1 0 3"/></svg>
